src/asset/image/info.svg

<svg width="24" height="24" viewBox="0 0 24 24" fill="none" xmlns="http://www.w3.org/2000/svg">
<path fill-rule="evenodd" clip-rule="evenodd" d="M12 0C5.38226 0 0 5.38226 0 12C0 18.6177 5.38226 24 12 24C18.6167 24 24 18.6177 24 12C24 5.38226 18.6167 0 12 0Z" fill="#5690A2"/>
<path fill-rule="evenodd" clip-rule="evenodd" d="M13.565 6.56522C13.565 5.70122 12.8623 5 11.9998 5C11.1343 5 10.4346 5.70122 10.4346 6.56522C10.4346 7.43078 11.1343 8.13043 11.9998 8.13043C12.8623 8.13043 13.565 7.43078 13.565 6.56522ZM16.0189 18.0005C16.0189 17.4403 15.5392 17.0092 14.9754 17.0092H13.0774V11.003C13.0774 10.4428 12.5977 10.0117 12.0339 10.0117H10.0046C9.44003 10.0117 8.96116 10.4427 8.96116 11.003C8.96116 11.5633 9.44003 11.9943 10.0046 11.9943H10.9904V17.0092H9.39113C8.82653 17.0092 8.34766 17.4402 8.34766 18.0005C8.34766 18.5608 8.82653 18.9918 9.39113 18.9918H14.9754C15.5392 18.9918 16.0189 18.5607 16.0189 18.0005Z" fill="white"/>
</svg>

<svg width="24" height="24" viewBox="0 0 24 24" fill="none" xmlns="http://www.w3.org/2000/svg"><path fill-rule="evenodd" clip-rule="evenodd" d="M12 0C5.382 0 0 5.382 0 12s5.382 12 12 12c6.617 0 12-5.382 12-12S18.617 0 12 0z" fill="#5690A2"/><path fill-rule="evenodd" clip-rule="evenodd" d="M13.565 6.565a1.565 1.565 0 10-3.131 0 1.565 1.565 0 003.131 0zM16.019 18c0-.56-.48-.99-1.044-.99h-1.898v-6.007c0-.56-.48-.991-1.043-.991h-2.03c-.564 0-1.043.43-1.043.991 0 .56.479.991 1.044.991h.985v5.015H9.391c-.564 0-1.043.431-1.043.991s.479.992 1.043.992h5.584c.564 0 1.044-.431 1.044-.992z" fill="#fff"/></svg>
